X: 37444
T: Sliabh Lucan, The
R: polka
M: 2/4
K: Gmajor
|:GD G>B|AD Ac|B/c/d Bd|Bd cA|
GD G>B|AD Ac|B/c/d cA|1 AG G>A:|2 AG GB||
|:A2 A>B|cB Ac|B/c/d Bd|Bd cB|
A2 A>B|cB Ac|B/c/d cA|1 AG GB:|2 AG B>A||

